X:1
T:Title
%%score { ( 1 4 5 ) | ( 2 3 ) }
L:1/8
M:4/4
K:C
V:1 treble nm="Grand Piano"
V:4 treble 
V:5 treble 
V:2 bass 
V:3 bass 
V:1
 z4 z2[Q:1/4=100] [CE]>[DF] | [EG]>[EG] [EG]>[EG] [FA]>[EG] [CE]>[EG] | c>d c>B A2 A>A | %3
 [EG]>[EG] [EG]>[EG] [FA]>[EG] [DF]>[CE] | [B,D]6 [G,CE]>[G,CF] | %5
 [EG]>[EG] [EG]>[EG] [FA]>[EG] [CE]>[EG] | c>d c>B A2 A>A | G>G c>c [Ge]>[Fd] [Ec]>[DB] | %8
[M:5/8] [Ec]-[Ec]- [Ec]3 |[M:12/8] z3 z c2- c6 | z3 z G2- G6 | %11
 [CEG] [CFA]2 [CEG] [B,DF]2 [CE] [B,D]2 [CE] [DF]2 | z3 z [Ec]2- [Ec]2 z z3 | z3 z c2- c6 | %14
 z3 z A2- A6 | cdc A G2 G c2 c [Ge]2 |[M:9/8] z3 z c2- c3- | c6 z3 |] %18
V:2
 z4 z2 [C,G,]>[C,G,] | [C,C]>[C,C] [C,C]>[C,C] [C,C]>[C,C] [C,G,]>[C,G,] | %2
 [F,A,F]>[F,A,F] [F,A,F]>[F,CF] [F,CF]2 [F,CF]>[F,CF] | %3
 [C,C]>[C,C] [C,C]>[C,C] [C,C]>[C,C] [C,G,]>[C,G,] | z4 G,2 z2 | %5
 [C,C]>[C,C] [C,C]>[C,C] [C,C]>[C,C] [C,G,]>[C,G,] | %6
 [F,A,F]>[F,A,F] [F,A,F]>[F,CF] [F,CF]2 [F,CF]>[F,CF] | %7
 [G,CE]>[G,CE] [G,E]>[G,E] [G,,G,]>[G,,G,] [G,,G,]>[G,,G,] |[M:5/8] [C,G,]-[C,G,]- [C,G,]3 | %9
[M:12/8][K:treble] z3 z[K:bass] E2- E6 | z3 z[K:bass] E2- E6 | %11
 C, C,2 C, G,,2 [G,,G,] [G,,G,]2 [G,,G,] [G,,G,]2 | %12
 [G,,G,] [G,,G,]2 [G,,G,] [C,G,]2 .C,2 G C, C,2 | z3 z[K:bass] E2- E6 | z3 z F2- F6[K:bass] | %15
 [F,A,F] [F,A,F]2 [F,CF] [G,CE]2 [G,CE] [G,E]2 [G,E] [G,,G,]2- | %16
[M:9/8] [G,,G,] [G,,G,]2- [G,,G,] [C,G,]2 [C,G,] [F,A,]2 | [F,A,] [C,G,]2- [C,G,] z z z3 |] %18
V:3
 x8 | x8 | x8 | x8 | [G,,G,]2 G,>G, z F, E,>D, | x8 | x8 | x8 |[M:5/8] x5 | %9
[M:12/8][K:treble] EFE .C3[K:bass] C, C,2 C, C,2 | E F2 .F3[K:bass] C, C,2 C, C,2 | x12 | %12
 z6 z C,2 z3 | EFE .C3[K:bass] C, C,2 C, C,2 | EGF .E3 F,[K:bass] F,2 F, F,2 | x12 |[M:9/8] x9 | %17
 x9 |] %18
V:4
 x8 | x8 | x8 | x8 | x8 | x8 | x8 | x8 |[M:5/8] x5 |[M:12/8] GAG .E3 G, G,2 G, G,2 | %10
 cdc .A3 C C2 C C2 | x12 | [EG] [FA]2 .[FB]3 .G,2 B [CFA] [CEG]2 | GAG .E3 G, G,2 G, G,2 | %14
 ced .c3 C C2 C C2 | x12 |[M:9/8] [Fd] [Ec]2 [DB] E2 E F2 | F E2- E z z z3 |] %18
V:5
 x8 | x8 | x8 | x8 | x8 | x8 | x8 | x8 |[M:5/8] x5 |[M:12/8] x12 | x12 | x12 | z6 z G,2 z3 | x12 | %14
 x12 | x12 |[M:9/8] x9 | x9 |] %18

